src/lib/packages/icons/src/assets/filled/arrow-down-square.svg

<svg width="24" height="24" viewBox="0 0 24 24" fill="none" xmlns="http://www.w3.org/2000/svg">
<path d="M17.625 3H6.375C4.125 3 3 4.125 3 6.375V17.625C3 19.875 4.125 21 6.375 21H17.625C19.875 21 21 19.875 21 17.625V6.375C21 4.125 19.875 3 17.625 3ZM15.53 13.53L12.53 16.53C12.461 16.599 12.3781 16.6539 12.2871 16.6919C12.1961 16.7299 12.098 16.75 12 16.75C11.902 16.75 11.8049 16.7299 11.7129 16.6919C11.6209 16.6539 11.539 16.599 11.47 16.53L8.46997 13.53C8.17697 13.237 8.17697 12.762 8.46997 12.469C8.76297 12.176 9.23801 12.176 9.53101 12.469L11.251 14.189V8C11.251 7.586 11.587 7.25 12.001 7.25C12.415 7.25 12.751 7.586 12.751 8V14.189L14.4709 12.469C14.7639 12.176 15.239 12.176 15.532 12.469C15.825 12.762 15.823 13.237 15.53 13.53Z" fill="currentColor"/>
</svg>

<svg xmlns="http://www.w3.org/2000/svg" width="24" height="24" fill="none"><path fill="currentColor" d="M17.625 3H6.375C4.125 3 3 4.125 3 6.375v11.25C3 19.875 4.125 21 6.375 21h11.25C19.875 21 21 19.875 21 17.625V6.375C21 4.125 19.875 3 17.625 3ZM15.53 13.53l-3 3a.755.755 0 0 1-.817.162.744.744 0 0 1-.243-.162l-3-3a.75.75 0 1 1 1.061-1.061l1.72 1.72V8a.75.75 0 0 1 1.5 0v6.189l1.72-1.72a.75.75 0 1 1 1.059 1.061Z"/></svg>
